ui/StatusQ/src/assets/img/icons/arrow-right.svg

<svg fill="none" height="24" viewBox="0 0 24 24" width="24" xmlns="http://www.w3.org/2000/svg"><path d="m13.4697 6.53033c-.2929-.29289-.2929-.76777 0-1.06066s.7677-.29289 1.0606 0l6 6.00003c.2929.2929.2929.7677 0 1.0606l-6 6c-.2929.2929-.7677.2929-1.0606 0s-.2929-.7677 0-1.0606l3.8661-3.8661c.315-.315.0919-.8536-.3536-.8536h-12.9822c-.41421 0-.75-.3358-.75-.75s.33579-.75.75-.75h12.9822c.4455 0 .6686-.5386.3536-.8536z" fill="#000"/></svg>

<svg width="24" height="24" viewBox="0 0 24 24" fill="none" xmlns="http://www.w3.org/2000/svg">
<path d="M13.4697 6.53033C13.1768 6.23744 13.1768 5.76256 13.4697 5.46967C13.7626 5.17678 14.2374 5.17678 14.5303 5.46967L20.5303 11.4697C20.8232 11.7626 20.8232 12.2374 20.5303 12.5303L14.5303 18.5303C14.2374 18.8232 13.7626 18.8232 13.4697 18.5303C13.1768 18.2374 13.1768 17.7626 13.4697 17.4697L17.3358 13.6036C17.6508 13.2886 17.4277 12.75 16.9822 12.75H4C3.58579 12.75 3.25 12.4142 3.25 12C3.25 11.5858 3.58579 11.25 4 11.25H16.9822C17.4277 11.25 17.6508 10.7114 17.3358 10.3964L13.4697 6.53033Z" fill="black"/>
</svg>
